X:1
T: The Bonnie Breist Knots
C:
R:Strathspey
Q:128
K:A
M:4/4
L:1/16
|:e2|A3B ce3 d3e fa3|e3c A3c B4 e4|A3B ce3 d3e f2ga|e3c B3e c4A2e2|
A3B ce3 d3e fa3|e3c A3c B4 e4|A3B ce3 d3e f2ga|e3c B3e c4A2E2|
A3G A2F2 Ec3 A3B|A3G AF3 E3c A3B|c3d c3B ca3 g3e|dB3 c3d e4 F3G|
A3B ce3 d3e fa3|e3c A3c B4 e3E|A3B ce3 d3e fa3|e3c B3e c4A2||
